X: 1
T: Over The Drumlins
M: 6/8
L: 1/8
R: jig
K: Ddor
ADD ADD|CEG ABc|~d3 cAF|A/B/cA GEC|
A,DD FGA|GEG c2^c|dAF FGA|GEC D3:|
|:AdB cAG|ADD ADD|CA,C DFA|def efg|
~a3 gec|dAF GEC|A,DD FGA|1 GEC D3:|2 GEC D2E||
|:~F3 FGA|GEC EFG|FAc ~f3|dgf ede|
~f3 edc|AGA c2^c|dAF FGA|1 GEC D2E:|2 GEC D3||
|:~d3 fed|cAd cAG|~F3 AGF|GcA GEC|
D3 EDE|~F3 GFG|Adc AGF|GEC D3:|
